src/phone.svg

<svg viewBox="0 0 16 16" fill="none" xmlns="http://www.w3.org/2000/svg"><path d="M10.27 1H5.73C5.27279 1.0052 4.83577 1.18913 4.51245 1.51245C4.18913 1.83577 4.0052 2.27279 4 2.73V13.27C4.0052 13.7272 4.18913 14.1642 4.51245 14.4875C4.83577 14.8109 5.27279 14.9948 5.73 15H10.27C10.7272 14.9948 11.1642 14.8109 11.4875 14.4875C11.8109 14.1642 11.9948 13.7272 12 13.27V2.73C11.9948 2.27279 11.8109 1.83577 11.4875 1.51245C11.1642 1.18913 10.7272 1.0052 10.27 1ZM11 13.27C11 13.4636 10.9231 13.6493 10.7862 13.7862C10.6493 13.9231 10.4636 14 10.27 14H5.73C5.53639 14 5.35071 13.9231 5.21381 13.7862C5.07691 13.6493 5 13.4636 5 13.27V12H11V13.27ZM11 11H5V2.73C5 2.53639 5.07691 2.35071 5.21381 2.21381C5.35071 2.07691 5.53639 2 5.73 2H10.27C10.4636 2 10.6493 2.07691 10.7862 2.21381C10.9231 2.35071 11 2.53639 11 2.73V11ZM8.5 12.5H7.5V13.5H8.5V12.5ZM6.5 4H9.5V3H6.5V4Z" fill="#111111"/></svg>

<svg viewBox="0 0 16 16" fill="none" xmlns="http://www.w3.org/2000/svg"><path d="M10.27 1H5.73A1.75 1.75 0 0 0 4 2.73v10.54A1.75 1.75 0 0 0 5.73 15h4.54A1.75 1.75 0 0 0 12 13.27V2.73A1.75 1.75 0 0 0 10.27 1ZM11 13.27a.73.73 0 0 1-.73.73H5.73a.73.73 0 0 1-.73-.73V12h6v1.27ZM11 11H5V2.73A.73.73 0 0 1 5.73 2h4.54a.73.73 0 0 1 .73.73V11Zm-2.5 1.5h-1v1h1v-1ZM6.5 4h3V3h-3v1Z" fill="#111111"/></svg>
